X:1
T:Put On Your Old Grey Bonnet
T:Put On Your Old Grey Bonnet
T:(Golden Wedding Day)
T:w: Stanley Murphy
T:m: Percy Wenrich 
C:Percy Wenrich
Z:All Rights Reserved
L:1/8
M:2/4
K:F
V:1 treble 
%%MIDI program 0
V:1
 AB |:"F" cd cd | cA EF |"G7" GA GA | GF ^CD |"C7" E2 B2 | A2 G2 |"F" c4- | c2 AB | cd cd | cA EF | %11
w: 1.~On the|old farm house ver-|an- da sat old|Si- las and Mir-|an- da Think- ing|of the|days gone|by.|_ He said|"Dear- ie, don't be|wear- y, you were|
w: |2.~in that same grey|bon- net with the|same blue rib- bon|on it ~in the|same shay|by his|side|_ that he|drove her down to|Do- ver through the|
w: |||||||||||
"G7" GA GA | GF ^CD |"C7" E2 B2 | A2 G2 |"F" F4- | F2 z F |"G7" GA =BG |"C" AG ^FG |"G7" FG A=B | %20
w: al- ways bright and|cheer- y but a|tear, dear,|dims your|eye"|_ Said|she "They're tears of|glad- ness, Si- las|they're not tears of|
w: same old fields of|clo- ver to be-|come his|hap py|bride.|_ The|birds were bright- ly|sing- ing, and the|same old bells were|
w: |||||||||
"C" AG ^FG |"D7" A^G A^A |"G7" =BA BG |"C7" c4- | c2 AB |"F" cd cd | cA EF |"G7" GA GA | GF ^CD | %29
w: sad- ness, It is|fif- ty years to-|day that we were|wed"|* And the|old man's eyes they|bright- ened and his|stern old heart it|light ened as he|
w: ring- ing as they|passed the quaint old|church where they were|wed.|* And that|night while stars were|gleam- ing, the old|cou- ple lay there|dream- ing; Dream- ing|
w: |||||||||
"C7" E2 B2 | A2 G2 |"F" F4- |"Bb" F z |][K:Bb] z4 | z"Bb" D E=E |S F2 F2 | D F2 F/F/ |"Eb" G G2 E | %38
w: turned to|her and|said:|_||Put on your|old grey|bon- net with the|blue rib- bon|
w: of the|words he|said:|_||||||
w: |||||||||
 GB AG |"Bb" F2 B2 | BB AB |"F7" c4- | cc Bc |"Bb" d2 d2 | dc BG |"Eb" B2 B2 |"Bb" GF DE | F2 d2 | %48
w: on it and I'll|hitch old|Dob- bin to the|shay.|_ And through the|fields of|clo- ver we'll drive|up to|Do- ver on our|gol- den|
w: ||||||||||
w: ||||||||||
"C7" d"F7" c3 |1"Bb" B4- || B"F" z AB :|2"Bb" B4- || BD E=E!D.S.! |]3"Bb" B4- || B z z2!fine! |] %55
w: wedd- ing|day.|_ 2.It was|day.|_ Put on your|day.|_|
w: |||||||
w: |||||||

